public/assets/footer/x-light.svg

<svg fill="none" height="36" viewBox="0 0 36 36" width="36" xmlns="http://www.w3.org/2000/svg" xmlns:xlink="http://www.w3.org/1999/xlink"><clipPath id="a"><path d="m7.71436 7.71429h20.571v20.571h-20.571z"/></clipPath><g clip-path="url(#a)"><path d="m19.9149 16.425 7.4935-8.71071h-1.7759l-6.5063 7.56321-5.1969-7.56321h-5.994l7.8586 11.43711-7.8586 9.1343h1.77589l6.87121-7.987 5.488 7.987h5.994l-8.1499-11.8607zm-2.4322 2.827-.7964-1.1388-6.3353-9.06208h2.7276l5.1125 7.31348.7962 1.1388 6.646 9.5063h-2.7273l-5.4233-7.7572z" fill="#1e1e1e"/></g></svg>

<svg xmlns="http://www.w3.org/2000/svg" width="36" height="36" fill="none" viewBox="0 0 36 36"><g clip-path="url(#clip0_1141_18626)"><path fill="#1E1E1E" d="M19.9149 16.425L27.4084 7.71429H25.6325L19.1262 15.2775L13.9293 7.71429H7.9353L15.7939 19.1514L7.9353 28.2857H9.71119L16.5824 20.2987L22.0704 28.2857H28.0644L19.9145 16.425H19.9149ZM17.4827 19.252L16.6863 18.1132L10.351 9.05112H13.0786L18.1911 16.3646L18.9873 17.5034L25.6333 27.0097H22.906L17.4827 19.2525V19.252Z"/></g><defs><clipPath id="clip0_1141_18626"><rect width="20.571" height="20.571" fill="#fff" transform="translate(7.71436 7.71429)"/></clipPath></defs></svg>
